plasma/desktoptheme/Arc-Dark/icons/elisa.svg

<svg xmlns="http://www.w3.org/2000/svg" width="32" height="32" version="1.1">
 <g id="22-22-elisa" transform="translate(27,5)">
  <rect style="opacity:0.001" width="22" height="22" x="5" y="5"/>
  <path style="fill:#d3dae3" d="M 7.5605469,8 C 6.6959894,8 6,8.7419625 6,9.6640625 V 22.335938 c 0,0.895701 0.6583982,1.615291 1.4882812,1.65625 L 9.5625,20.257812 A 0.50005,0.50005 0 0 1 10,20 H 8.8027344 C 8.3579455,20 8,19.594444 8,19.089844 V 14 10.966797 C 8,10.430597 8.3579455,10 8.8027344,10 H 23.197266 C 23.642053,10 24,10.430597 24,10.966797 V 14 19.089844 C 24,19.594444 23.642053,20 23.197266,20 H 22 a 0.50005,0.50005 0 0 1 0.4375,0.257812 l 2.074219,3.734376 C 25.341601,23.951229 26,23.231639 26,22.335938 V 9.6640625 C 26,8.7419625 25.30401,8 24.439453,8 Z m 4.3496091,6 C 10.852684,14 10,14.891747 10,15.998047 v 0.0098 c 0,1.106302 0.852684,1.996094 1.910156,1.996094 h 8.179688 C 21.147318,18.003871 22,17.114114 22,16.007812 v -0.0098 C 22,14.891682 21.147318,14 20.089844,14 Z M 12,15 c 0.552285,0 1,0.447733 1,1 0,0.552267 -0.447715,1 -1,1 -0.552285,0 -1,-0.447733 -1,-1 0,-0.552267 0.447715,-1 1,-1 z m 2,0 h 4 v 2 h -4 z m 6,0 c 0.552285,0 1,0.447733 1,1 0,0.552267 -0.447715,1 -1,1 -0.552285,0 -1,-0.447733 -1,-1 0,-0.552267 0.447715,-1 1,-1 z m -9.705078,6 -1.6679689,3 H 23.373047 L 21.705078,21 Z M 10.75,22 A 0.75,0.75 0 0 1 11.5,22.75 0.75,0.75 0 0 1 10.75,23.5 0.75,0.75 0 0 1 10,22.75 0.75,0.75 0 0 1 10.75,22 Z m 10.5,0 A 0.75,0.75 0 0 1 22,22.75 0.75,0.75 0 0 1 21.25,23.5 0.75,0.75 0 0 1 20.5,22.75 0.75,0.75 0 0 1 21.25,22 Z"/>
  <path style="opacity:0.3;fill:#dfdfdf" d="m 14,15 v 2 h 1.825598 c 0.114652,-0.321 0.173766,-0.6592 0.174803,-1 -10e-4,-0.3408 -0.06015,-0.679 -0.174803,-1 z"/>
 </g>
 <g id="elisa">
  <rect style="opacity:0.001" width="32" height="32" x="0" y="0"/>
  <path style="fill:#d3dae3" d="M 3.3417969 4 C 2.0449605 4 1 5.1148469 1 6.4980469 L 1 25.501953 C 1 26.885253 2.0449605 28 3.3417969 28 L 4 28 L 6.8242188 23 L 25.175781 23 L 28 28 L 28.658203 28 C 29.955039 28 31 26.885253 31 25.501953 L 31 6.4980469 C 31 5.1148469 29.955039 4 28.658203 4 L 3.3417969 4 z M 5.203125 7 L 26.796875 7 C 27.464057 7 28 7.6468719 28 8.4511719 L 28 13 L 28 20.634766 C 28 21.391766 27.464057 22 26.796875 22 L 5.203125 22 C 4.5359414 22 4 21.391766 4 20.634766 L 4 13 L 4 8.4511719 C 4 7.6468719 4.5359414 7 5.203125 7 z M 10 13 A 3 3 0 0 0 7 16 A 3 3 0 0 0 10 19 L 22 19 A 3 3 0 0 0 25 16 A 3 3 0 0 0 22 13 L 10 13 z M 10 14 A 2 2 0 0 1 12 16 A 2 2 0 0 1 10 18 A 2 2 0 0 1 8 16 A 2 2 0 0 1 10 14 z M 13 14 L 19 14 L 19 18 L 13 18 L 13 14 z M 22 14 A 2 2 0 0 1 24 16 A 2 2 0 0 1 22 18 A 2 2 0 0 1 20 16 A 2 2 0 0 1 22 14 z M 6.8242188 24 L 4.5644531 28 L 27.435547 28 L 25.175781 24 L 6.8242188 24 z M 9 25 A 1 1 0 0 1 10 26 A 1 1 0 0 1 9 27 A 1 1 0 0 1 8 26 A 1 1 0 0 1 9 25 z M 23 25 A 1 1 0 0 1 24 26 A 1 1 0 0 1 23 27 A 1 1 0 0 1 22 26 A 1 1 0 0 1 23 25 z"/>
  <path style="opacity:0.3;fill:#dfdfdf" d="m 13,14 v 4 h 2.648438 A 6,6 0 0 0 16,16 6,6 0 0 0 15.650391,14 Z"/>
 </g>
</svg>

<?xml version="1.0" encoding="UTF-8"?>
<svg width="32" height="32" version="1.1" xmlns="http://www.w3.org/2000/svg">
 <g id="22-22-elisa" transform="translate(27,5)">
  <rect x="5" y="5" width="22" height="22" opacity=".001"/>
  <path d="m7.5605 8c-0.86456 0-1.5605 0.74196-1.5605 1.6641v12.672c0 0.8957 0.6584 1.6153 1.4883 1.6562l2.0742-3.7344a0.50005 0.50005 0 0 1 0.4375-0.25781h-1.1973c-0.44479 0-0.80273-0.40556-0.80273-0.91016v-8.123c0-0.5362 0.35795-0.9668 0.80273-0.9668h14.395c0.44479 0 0.80273 0.4306 0.80273 0.9668v8.123c0 0.5046-0.35795 0.91016-0.80273 0.91016h-1.1973a0.50005 0.50005 0 0 1 0.4375 0.25781l2.0742 3.7344c0.82988-0.040959 1.4883-0.76055 1.4883-1.6562v-12.672c0-0.9221-0.69599-1.6641-1.5605-1.6641zm4.3496 6c-1.0575 0-1.9102 0.89175-1.9102 1.998v0.0098c0 1.1063 0.85268 1.9961 1.9102 1.9961h8.1797c1.0575-7e-5 1.9102-0.88983 1.9102-1.9961v-0.0098c0-1.1063-0.85268-1.998-1.9102-1.998zm0.089844 1c0.55228 0 1 0.44773 1 1s-0.44772 1-1 1-1-0.44773-1-1 0.44772-1 1-1zm2 0h4v2h-4zm6 0c0.55228 0 1 0.44773 1 1s-0.44772 1-1 1-1-0.44773-1-1 0.44772-1 1-1zm-9.7051 6-1.668 3h14.746l-1.668-3zm0.45508 1a0.75 0.75 0 0 1 0.75 0.75 0.75 0.75 0 0 1-0.75 0.75 0.75 0.75 0 0 1-0.75-0.75 0.75 0.75 0 0 1 0.75-0.75zm10.5 0a0.75 0.75 0 0 1 0.75 0.75 0.75 0.75 0 0 1-0.75 0.75 0.75 0.75 0 0 1-0.75-0.75 0.75 0.75 0 0 1 0.75-0.75z" fill="#d3dae3"/>
  <path d="m14 15v2h1.8256c0.11465-0.321 0.17377-0.6592 0.1748-1-1e-3 -0.3408-0.06015-0.679-0.1748-1z" fill="#dfdfdf" opacity=".3"/>
 </g>
 <g id="elisa">
  <rect width="32" height="32" opacity=".001"/>
  <path d="m3.3418 4c-1.2968 0-2.3418 1.1148-2.3418 2.498v19.004c0 1.3833 1.045 2.498 2.3418 2.498h0.6582l2.8242-5h18.352l2.8242 5h0.6582c1.2968 0 2.3418-1.1147 2.3418-2.498v-19.004c0-1.3832-1.045-2.498-2.3418-2.498h-25.316zm1.8613 3h21.594c0.66718 0 1.2031 0.64687 1.2031 1.4512v4.5488 7.6348c0 0.757-0.53594 1.3652-1.2031 1.3652h-21.594c-0.66718 0-1.2031-0.60823-1.2031-1.3652v-7.6348-4.5488c0-0.8043 0.53594-1.4512 1.2031-1.4512zm4.7969 6a3 3 0 0 0-3 3 3 3 0 0 0 3 3h12a3 3 0 0 0 3-3 3 3 0 0 0-3-3h-12zm0 1a2 2 0 0 1 2 2 2 2 0 0 1-2 2 2 2 0 0 1-2-2 2 2 0 0 1 2-2zm3 0h6v4h-6v-4zm9 0a2 2 0 0 1 2 2 2 2 0 0 1-2 2 2 2 0 0 1-2-2 2 2 0 0 1 2-2zm-15.176 10-2.2598 4h22.871l-2.2598-4h-18.352zm2.1758 1a1 1 0 0 1 1 1 1 1 0 0 1-1 1 1 1 0 0 1-1-1 1 1 0 0 1 1-1zm14 0a1 1 0 0 1 1 1 1 1 0 0 1-1 1 1 1 0 0 1-1-1 1 1 0 0 1 1-1z" fill="#d3dae3"/>
  <path d="m13 14v4h2.6484a6 6 0 0 0 0.35156-2 6 6 0 0 0-0.34961-2z" fill="#dfdfdf" opacity=".3"/>
 </g>
</svg>
